svgs/thin/gavel.svg

<svg xmlns="http://www.w3.org/2000/svg" viewBox="0 0 512 512"><!--! Font Awesome Pro 6.0.0-alpha3 by @fontawesome - https://fontawesome.com License - https://fontawesome.com/license (Commercial License) --><path d="M512 232.5c0-4.599-3.758-7.999-7.994-7.999c-2.051 0-4.101 .7822-5.66 2.341l-11.91 11.91l-213.2-213.2l11.91-11.91c1.56-1.56 2.342-3.609 2.342-5.659c0-4.599-3.758-7.999-7.994-7.999c-2.051 0-4.101 .7822-5.66 2.341L138.1 138.1C136.5 139.7 135.7 141.7 135.7 143.8c0 4.244 3.411 7.996 7.996 7.996c2.05 0 4.099-.7822 5.658-2.342l10.74-10.73l100.9 100.9L186.3 314.3l11.31 11.31l74.71-74.71l100.9 100.9l-10.74 10.74c-1.56 1.56-2.342 3.609-2.342 5.658c0 4.601 3.766 7.997 7.996 7.997c2.05 0 4.099-.7822 5.658-2.342l135.8-135.8C511.2 236.6 512 234.5 512 232.5zM171.4 127.4l90.51-90.51l20.93 20.93L192.4 148.3L171.4 127.4zM203.7 159.6l90.51-90.51l148.7 148.7l-90.51 90.51L203.7 159.6zM384.6 340.6l-20.93-20.93l90.51-90.51l20.93 20.93L384.6 340.6zM169.4 297.4C163.1 291.1 154.9 288 146.7 288c-8.186 0-16.37 3.126-22.62 9.372l-114.7 114.7c-6.25 6.248-9.375 14.43-9.375 22.62s3.125 16.37 9.375 22.62l45.25 45.25C60.87 508.9 69.06 512 77.25 512s16.37-3.125 22.62-9.375l114.7-114.7c6.25-6.25 9.376-14.44 9.376-22.62c0-8.185-3.125-16.37-9.374-22.62L169.4 297.4zM207.1 365.3c0 4.096-1.559 8.191-4.676 11.31l-114.7 114.7C85.53 494.3 81.52 496 77.25 496c-4.271 0-8.287-1.664-11.31-4.688l-45.25-45.25c-3.023-3.02-4.688-7.035-4.688-11.3s1.664-8.285 4.689-11.31l114.7-114.7C138.5 305.7 142.5 304 146.7 304c4.271 0 8.287 1.664 11.31 4.684l45.25 45.25C206.4 357.1 207.1 361.2 207.1 365.3z"/></svg>

<svg xmlns="http://www.w3.org/2000/svg" viewBox="0 0 512 512"><!-- Font Awesome Pro 6.0.0-alpha2 by @fontawesome - https://fontawesome.com License - https://fontawesome.com/license (Commercial License) --><path d="M512 232.482C512 227.883 508.241 224.483 504.006 224.483C501.955 224.483 499.905 225.266 498.346 226.824L486.436 238.734L273.264 25.562L285.174 13.656C286.734 12.096 287.515 10.048 287.515 7.998C287.515 3.398 283.757 -0.001 279.522 -0.001C277.471 -0.001 275.421 0.781 273.861 2.34L138.074 138.125C136.515 139.685 135.733 141.734 135.733 143.784C135.733 148.028 139.144 151.78 143.729 151.78C145.779 151.78 147.828 150.998 149.387 149.438L160.127 138.703L261.057 239.629L186.344 314.344L197.656 325.656L272.369 250.941L373.297 351.871L362.559 362.609C360.999 364.169 360.217 366.218 360.217 368.267C360.217 372.868 363.983 376.264 368.213 376.264C370.263 376.264 372.312 375.482 373.871 373.922L509.658 238.141C511.218 236.581 512 234.532 512 232.482ZM171.439 127.387L261.951 36.879L282.881 57.805L192.369 148.316L171.439 127.387ZM203.682 159.629L294.193 69.117L442.881 217.805L352.369 308.316L203.682 159.629ZM384.611 340.555L363.682 319.629L454.193 229.117L475.121 250.047L384.611 340.555ZM169.363 297.387C163.113 291.141 154.928 288.016 146.74 288.016C138.555 288.016 130.367 291.141 124.117 297.387L9.375 412.133C3.125 418.381 0 426.567 0 434.754S3.125 451.127 9.375 457.375L54.621 502.625C60.871 508.875 69.059 512 77.246 512S93.619 508.875 99.869 502.625L214.611 387.883C220.862 381.632 223.987 373.446 223.987 365.259C223.987 357.074 220.863 348.888 214.613 342.637L169.363 297.387ZM207.975 365.26C207.975 369.355 206.416 373.451 203.299 376.57L88.557 491.313C85.533 494.336 81.516 496 77.246 496C72.975 496 68.959 494.336 65.936 491.312L20.688 446.059C17.664 443.039 16 439.023 16 434.754S17.664 426.469 20.689 423.445L135.43 308.703C138.453 305.68 142.471 304.016 146.74 304.016C151.012 304.016 155.027 305.68 158.051 308.699L203.299 353.949C206.416 357.068 207.975 361.164 207.975 365.26Z "></path></svg>
